art/logos/cgenie.svg

<svg xmlns="http://www.w3.org/2000/svg" viewBox="0 0 600 300"><g fill="none" stroke-width="2"><path stroke="#5c5032" d="M600 51.25 0 51.23" vector-effect="non-scaling-stroke"/><path stroke="#03849a" d="M600 58.81c-.84-.04-1.53-.31-2.34-.31q-284.61-.02-569.22.03-20.99 0-28.45.15" vector-effect="non-scaling-stroke"/><path stroke="#00502f" d="M513.75 171.46H504" vector-effect="non-scaling-stroke"/><path stroke="#03346c" d="M368.75 171.46h-6" vector-effect="non-scaling-stroke"/><path stroke="#5c5032" d="M600 240.48H0" vector-effect="non-scaling-stroke"/><path stroke="#03849a" d="M600 247.81c-11.69-.52-23.31-.2-35-.21q-282.5-.29-565 .09" vector-effect="non-scaling-stroke"/></g><path d="M141.37 70.22q8.96.54 17.95.22c2.01-.08 3.65-1.34 5.82-1.22a2.5 2.49 1.7 0 1 2.35 2.49l.01 8.29a1.04.99 72 0 1-.39.81c-1.75 1.34-25.93.44-29.83.46a1.92 1.91-75.3 0 0-1.67.98q-17.93 31.96-35.23 64.18-1.77 3.29-3.87 6.49a1.46 1.46 0 0 0 1.2 2.26c2.92.05 6.15-.43 8.81-.43q29.87.06 59.82-.09a1.15 1.15 0 0 1 1.16 1.15v8.85a.71.7 80.9 0 1-.48.67c-3.01 1.05-6.42.17-8.66.17H94.5q-2.19 0-6.86.76a1.43 1.43 0 0 1-.91-.15l-1.73-.95a.45.45 0 0 1-.14-.66q2.84-3.71 3.57-5.07c16-29.99 31.93-60.32 49.4-89.45a1.12 1.11-79.7 0 1 .76-.53q1.1-.21 1.91.44a1.57 1.54-23.5 0 0 .87.33"/><path d="M120.3 133.39a.48.48 0 0 0 .43.27l45.78-.31a.98.98 0 0 1 .99.98v9.2a1.15 1.14-89.5 0 1-1.15 1.14c-19.15-.15-38.27-.61-57.42.07a1.39 1.39 0 0 1-1.33-1.93c.8-1.92 2.3-3.67 3.12-5.17q12.59-22.88 24.99-45.76a1.18 1.17-75.9 0 1 1.01-.61q11.52-.06 22.95.01c1.91.01 4.84-.92 7.39.17a.72.71-79 0 1 .44.66v9.08a.99.99 0 0 1-1 .99l-28.41-.34a2 1.98 15.4 0 0-1.73.97l-4.56 7.77a1.18 1.17 14.8 0 0 1.03 1.77l33.66-.57a.97.97 0 0 1 .99.96l.04 8.71a1.47 1.46-89.8 0 1-1.47 1.47l-39.7-.25a1.25 1.24 15 0 0-1.08.62l-5.14 8.63a1.1 1.09 48 0 0-.05 1.03zM289.75 126.75a.34.33 13.8 0 0-.3-.49l-9.16-.01a.77.77 0 0 1-.77-.77l-.02-9.44a1.2 1.19 0 0 1 1.21-1.2l20.75.2a.9.9 0 0 1 .88.77c2.13 15.55-6.53 28.96-22.03 32.52-18.18 4.18-36.07-9.18-35.65-28.13.64-28.84 37.3-38.42 52.91-14.78q.86 1.29.23 2.94a1.57 1.49-7.8 0 1-.59.74q-2.76 1.8-5.53 3.58c-3.14 2.02-6.57-3.94-9.05-5.55q-11.95-7.78-22.07 2.94c-16.37 17.33 15.56 41.93 29.19 16.68M209.74 115.3l19.51-.07a1.76 1.75 89.8 0 1 1.76 1.76l-.02 7.65a1.63 1.62.2 0 1-1.63 1.61h-19.49a.62.62 0 0 0-.62.62v9.26a.63.62 0 0 0 .63.62h27.2a1.15 1.15 0 0 1 1.15 1.14l.04 8.31a1.54 1.53 90 0 1-1.53 1.54h-37.93q-2.02 0-2.43-1.98-.16-.77-.13-2.83.35-23.66.12-46.74a1.66 1.66 0 0 1 1.66-1.68l39.19-.01a1.03 1.03 0 0 1 1.03 1.03l.01 8.69a1.29 1.28 0 0 1-1.29 1.28l-27.24-.02a.48.48 0 0 0-.48.48v8.85a.49.49 0 0 0 .49.49M325.14 136.78l22.56-.04a1.02 1.02 0 0 1 1.03 1.02l.03 8.57a1.4 1.4 0 0 1-1.4 1.4l-34.63.02a1.45 1.45 0 0 1-1.46-1.45c-.06-10.53-.68-16.37 8.92-22.36 3.92-2.44 17.45-8.9 15.87-14.64q-.61-2.23-2.9-3.03-7.21-2.53-9.21 4.27a1.89 1.89 0 0 1-2.17 1.33c-2.69-.51-12.07-.88-10.08-5.41q6.09-13.89 22.04-11.69c9.53 1.32 16.44 8 15.07 17.93-.91 6.59-4.39 9.83-10.34 13.45q-7.09 4.31-13.8 9.22a.78.78 0 0 0 .47 1.41M358.52 108.51c.44-6.2 8.08-11.9 13.67-13.3 10.29-2.6 27.21 1.8 27.29 15.37q.06 11.21 0 22.42c-.04 7.43-9.29 13.22-15.67 14.37-11.4 2.05-24.75-3.13-25.31-16.31q-.59-13.92.02-22.55m28.7 4.93a7.83 7.83 0 0 0-7.83-7.83h-.82a7.83 7.83 0 0 0-7.83 7.83v15.22a7.83 7.83 0 0 0 7.83 7.83h.82a7.83 7.83 0 0 0 7.83-7.83zM413.62 101.62q8.38-8.95 20.87-6.85c9.39 1.59 16.93 7.2 16.81 17.08-.08 7.42 1.75 21.43-2.64 27.37-5.62 7.62-14.87 9.91-24.29 7.81-7.81-1.74-14.29-7.8-14.18-16.25.1-7.79-2.01-23.35 3.43-29.16m25.14 11.69c.01-10.58-16.29-9.01-16.27-1.3q.02 8.3 0 16.65c-.03 10.25 16.25 10.53 16.26.23q0-7.77.01-15.58M502.19 137.27c-7.6 15.84-39.62 13.7-39.68-6.48q-.03-11.01 0-22.04c.02-6.45 8.7-12.25 13.95-13.57 10.75-2.7 26.97 2.12 27.02 15.82.02 6.72 1.5 20.48-1.29 26.27m-10.937-23.816a7.83 7.83 0 0 0-7.816-7.843l-.84-.002a7.83 7.83 0 0 0-7.844 7.817l-.026 15.22a7.83 7.83 0 0 0 7.816 7.843l.84.002a7.83 7.83 0 0 0 7.844-7.817zM513.75 171.46H504l.44-.41a1.14 1.13-66.4 0 1 .78-.31h7.85a.66.65-8.3 0 1 .63.46q.04.12.05.26M368.75 171.46h-6q3.06-1.46 6 0"/><g fill="#00a05d"><path d="m0 51.23 600 .02v7.56c-.84-.04-1.53-.31-2.34-.31q-284.61-.02-569.22.03-20.99 0-28.45.15zM504 171.46h9.75c1.25.82.76 8.8.75 10.58a.72.72 0 0 1-.72.71h-9.77a.72.72 0 0 1-.72-.71c-.04-1.77-.55-9.76.71-10.58M173.22 195.26c11.82-19.71 44.01-11.92 41.53 13.5-2.02 20.61-28.58 25.41-39.94 10.64-5.11-6.64-5.94-16.88-1.59-24.14m26.243 3.371a9.41 9.41 0 0 0-13.306-.209l-1.134 1.1a9.41 9.41 0 0 0-.21 13.306l1.184 1.22a9.41 9.41 0 0 0 13.306.21l1.134-1.1a9.41 9.41 0 0 0 .21-13.306z"/><rect width="11.26" height="42.48" x="503.25" y="184.27" rx="1.44"/><path d="M0 240.48h600v7.33c-11.69-.52-23.31-.2-35-.21q-282.5-.29-565 .09z"/></g><g fill="#0567d7"><path d="M600 58.81v7c-154.84.27-309.69-.27-464.53.2Q67.73 66.22 0 65.68l-.01-7q7.46-.15 28.45-.15 284.61-.05 569.22-.03c.81 0 1.5.27 2.34.31M362.75 171.46h6q14.28 1.46 21.96 13.7a2.22 2.21-31.8 0 1-.72 3.06l-6.4 3.96a1.88 1.88 0 0 1-2.38-.34c-1.87-2.05-3.89-4.59-6.31-5.97q-13.42-7.64-22.92 4.91c-10.34 13.66 7.36 32.18 22.14 23.87q5.63-3.16 8.14-8.51a.65.64 12.2 0 0-.6-.92l-8.45.11a.93.93 0 0 1-.94-.93l-.03-9.49a.91.91 0 0 1 .91-.91h21.07a.9.89 85.5 0 1 .88.76c3.05 19.97-12.31 34.81-31.98 33.01-33.72-3.09-34.4-51.78-.37-56.31M80.94 208.46c3.05 1.77 9.04 4.14 5.46 8.69-17.54 22.3-54.67 9.78-51.86-19.7 1.39-14.61 12.62-24.76 27.1-25.53q15.44-.82 25.66 13.09a2.74 2.73 53.5 0 1-.56 3.81c-2.6 1.94-6.89 6-9.86 2.24-9.26-11.74-25.39-8.89-30.24 4.93-4.12 11.73 8.85 24.05 20.35 20.69q6.6-1.93 10.46-7.45a2.65 2.65 0 0 1 3.49-.77M261.48 225.83a1.24 1.23 85.6 0 1-1.03 1.21q-3.76.66-7.98.07-2.29-.32-4.39.14c-10.07 2.21-19.78-1.62-23.54-11.32q-1.33-3.43-1.3-10.04.03-10.26 0-20.59a1.04 1.04 0 0 1 1.05-1.04l9.53.05a.63.63 0 0 1 .62.63l.1 17.4c.03 6.16-.4 10.63 4.71 13.44 5.82 3.2 10.4-2.41 10.7-7.77q.61-10.91.14-22.66a.96.96 0 0 1 .95-1l8.94-.13a1.49 1.49 0 0 1 1.51 1.5zM600 247.81v7.17l-600-.04v-7.25q282.5-.38 565-.09c11.69.01 23.31-.31 35 .21"/></g><g fill="#b70006"><path d="M600 44.05v7.2L0 51.23v-7.2zM95.05 201.65c4.57-25.68 45.23-21.75 44.18 4.88-1.23 31.17-49.88 27.06-44.18-4.88m29.656 11.367a9.42 9.42 0 0 0-.023-13.322l-1.176-1.171a9.42 9.42 0 0 0-13.322.023l-1.171 1.176a9.42 9.42 0 0 0 .023 13.322l1.176 1.171a9.42 9.42 0 0 0 13.322-.023zM283.79 185.54q3.87-1.55 8.07-1.16a1.52 1.51-87.9 0 1 1.38 1.49q.04 3.47-.01 7.33c-.03 2.14-.98 2.11-2.71 2.31-6.12.68-7.49 5.4-7.51 11.09q-.02 9.68-.02 19.14a.99.99 0 0 1-1 1l-9.52-.05a.73.72.4 0 1-.72-.72v-40.72a.75.75 0 0 1 .75-.75h9.42a1.02 1 73.1 0 1 .84.46l.18.3a.7.7 0 0 0 .85.28M419.56 216.27c5.62 1.79 11.05-2.42 13.34-7.23a1.32 1.31-88 0 1 .68-.64q2.32-.94 3.66 1.11c1.16 1.78 4.76 6.3 4.2 8.28-1.23 4.41-9.28 8.77-13.1 9.52-13.34 2.62-26.16-4.37-27.78-18.21-2.94-25.19 29.58-34.03 42.08-13.35.77 1.29.76 2.64.48 4.02a1.29 1.27-10.9 0 1-.55.8l-23.13 14.84a.48.48 0 0 0 .12.86m6.77-19.51c-6.63-3.5-13.22 3.36-14.57 9.4a.26.26 0 0 0 .4.27l14.19-9.18a.28.28 0 0 0-.02-.49M542.14 215.98c5.15 2.75 11.37-2.49 13.2-6.95a.98.98 0 0 1 .81-.61l2-.2a1.02 1.01-20.4 0 1 .93.42c2.07 2.86 6.83 7.81 3.89 11.31q-6.03 7.15-15.44 7.93c-30.74 2.54-32.87-41.97-3.95-43.57 11.93-.66 16.33 4.38 22.93 13.02a1.86 1.85-35 0 1-.48 2.69l-23.91 15.3a.38.38 0 0 0 .02.66m6.79-19.49c-7.04-2.04-13.31 2.66-14.41 9.66a.22.22 0 0 0 .34.22l14.17-9.18a.39.39 0 0 0-.1-.7"/><path d="M600 233.24v7.24H0v-7.29c118-.21 236-.05 354-.19q123-.15 246 .24"/></g><g fill="#d1c544"><rect width="11.24" height="55.48" x="149.01" y="171.78" rx="1.46"/><path d="M453.26 186.29a.69.68 87.8 0 1 .63-.69c4.48-.33 9.44.76 13.67-.29 8.97-2.24 18.42 2.11 22.29 10.43q1.42 3.05 1.54 8.25.25 11.01.05 22.06a1.22 1.22 0 0 1-1.22 1.2l-8.47.01a1.79 1.78-88.5 0 1-1.78-1.88c.31-5.55 1.56-21.54-1.74-25.7-3.55-4.49-9.82-3.94-12.52 1.01-2.48 4.55-1.26 19.31-1.13 25.42a1.13 1.13 0 0 1-1.13 1.15l-9.17-.01a1.03 1.03 0 0 1-1.03-1.03z"/></g></svg>

<?xml version="1.0" encoding="UTF-8" standalone="no"?>
<!DOCTYPE svg PUBLIC "-//W3C//DTD SVG 1.1//EN" "http://www.w3.org/Graphics/SVG/1.1/DTD/svg11.dtd">
<svg xmlns="http://www.w3.org/2000/svg" version="1.1" viewBox="0 0 600 300">
<g stroke-width="2.00" fill="none" stroke-linecap="butt">
<path stroke="#5c5032" vector-effect="non-scaling-stroke" d="
  M 600.00 51.25
  L 0.00 51.23"
/>
<path stroke="#03849a" vector-effect="non-scaling-stroke" d="
  M 600.00 58.81
  C 599.16 58.77 598.47 58.50 597.66 58.50
  Q 313.05 58.48 28.44 58.53
  Q 7.45 58.53 -0.01 58.68"
/>
<path stroke="#00502f" vector-effect="non-scaling-stroke" d="
  M 513.75 171.46
  L 504.00 171.46"
/>
<path stroke="#03346c" vector-effect="non-scaling-stroke" d="
  M 368.75 171.46
  L 362.75 171.46"
/>
<path stroke="#5c5032" vector-effect="non-scaling-stroke" d="
  M 600.00 240.48
  L 0.00 240.48"
/>
<path stroke="#03849a" vector-effect="non-scaling-stroke" d="
  M 600.00 247.81
  C 588.31 247.29 576.69 247.61 565.00 247.60
  Q 282.50 247.31 0.00 247.69"
/>
</g>
<g fill="#000000">
<path d="
  M 141.37 70.22
  Q 150.33 70.76 159.32 70.44
  C 161.33 70.36 162.97 69.10 165.14 69.22
  A 2.50 2.49 1.7 0 1 167.49 71.71
  L 167.50 80.00
  A 1.04 0.99 72.0 0 1 167.11 80.81
  C 165.36 82.15 141.18 81.25 137.28 81.27
  A 1.92 1.91 -75.3 0 0 135.61 82.25
  Q 117.68 114.21 100.38 146.43
  Q 98.61 149.72 96.51 152.92
  A 1.46 1.46 0.0 0 0 97.71 155.18
  C 100.63 155.23 103.86 154.75 106.52 154.75
  Q 136.39 154.81 166.34 154.66
  A 1.15 1.15 0.0 0 1 167.50 155.81
  L 167.50 164.66
  A 0.71 0.70 80.9 0 1 167.02 165.33
  C 164.01 166.38 160.60 165.50 158.36 165.50
  Q 126.43 165.50 94.50 165.50
  Q 92.31 165.50 87.64 166.26
  A 1.43 1.43 0.0 0 1 86.73 166.11
  L 85.00 165.16
  A 0.45 0.45 0.0 0 1 84.86 164.50
  Q 87.70 160.79 88.43 159.43
  C 104.43 129.44 120.36 99.11 137.83 69.98
  A 1.12 1.11 -79.7 0 1 138.59 69.45
  Q 139.69 69.24 140.50 69.89
  A 1.57 1.54 -23.5 0 0 141.37 70.22
  Z"
/>
<path d="
  M 120.30 133.39
  A 0.48 0.48 0.0 0 0 120.73 133.66
  L 166.51 133.35
  A 0.98 0.98 0.0 0 1 167.50 134.33
  L 167.50 143.53
  A 1.15 1.14 -89.5 0 1 166.35 144.67
  C 147.20 144.52 128.08 144.06 108.93 144.74
  A 1.39 1.39 0.0 0 1 107.60 142.81
  C 108.40 140.89 109.90 139.14 110.72 137.64
  Q 123.31 114.76 135.71 91.88
  A 1.18 1.17 -75.9 0 1 136.72 91.27
  Q 148.24 91.21 159.67 91.28
  C 161.58 91.29 164.51 90.36 167.06 91.45
  A 0.72 0.71 -79.0 0 1 167.50 92.11
  L 167.50 101.19
  A 0.99 0.99 0.0 0 1 166.50 102.18
  L 138.09 101.84
  A 2.00 1.98 15.4 0 0 136.36 102.81
  L 131.80 110.58
  A 1.18 1.17 14.8 0 0 132.83 112.35
  L 166.49 111.78
  A 0.97 0.97 0.0 0 1 167.48 112.74
  L 167.52 121.45
  A 1.47 1.46 -89.8 0 1 166.05 122.92
  L 126.35 122.67
  A 1.25 1.24 15.0 0 0 125.27 123.29
  L 120.13 131.92
  A 1.10 1.09 48.0 0 0 120.08 132.95
  L 120.30 133.39
  Z"
/>
<path d="
  M 289.75 126.75
  A 0.34 0.33 13.8 0 0 289.45 126.26
  L 280.29 126.25
  A 0.77 0.77 0.0 0 1 279.52 125.48
  L 279.50 116.04
  A 1.20 1.19 0.0 0 1 280.71 114.84
  L 301.46 115.04
  A 0.90 0.90 0.0 0 1 302.34 115.81
  C 304.47 131.36 295.81 144.77 280.31 148.33
  C 262.13 152.51 244.24 139.15 244.66 120.20
  C 245.30 91.36 281.96 81.78 297.57 105.42
  Q 298.43 106.71 297.80 108.36
  A 1.57 1.49 -7.8 0 1 297.21 109.10
  Q 294.45 110.90 291.68 112.68
  C 288.54 114.70 285.11 108.74 282.63 107.13
  Q 270.68 99.35 260.56 110.07
  C 244.19 127.40 276.12 152.00 289.75 126.75
  Z"
/>
<path d="
  M 209.74 115.30
  L 229.25 115.23
  A 1.76 1.75 89.8 0 1 231.01 116.99
  L 230.99 124.64
  A 1.63 1.62 0.2 0 1 229.36 126.25
  L 209.87 126.25
  A 0.62 0.62 0.0 0 0 209.25 126.87
  L 209.25 136.13
  A 0.63 0.62 0.0 0 0 209.88 136.75
  L 237.08 136.75
  A 1.15 1.15 0.0 0 1 238.23 137.89
  L 238.27 146.20
  A 1.54 1.53 90.0 0 1 236.74 147.74
  L 198.81 147.74
  Q 196.79 147.74 196.38 145.76
  Q 196.22 144.99 196.25 142.93
  Q 196.60 119.27 196.37 96.19
  A 1.66 1.66 0.0 0 1 198.03 94.51
  L 237.22 94.50
  A 1.03 1.03 0.0 0 1 238.25 95.53
  L 238.26 104.22
  A 1.29 1.28 -0.0 0 1 236.97 105.50
  L 209.73 105.48
  A 0.48 0.48 0.0 0 0 209.25 105.96
  L 209.25 114.81
  A 0.49 0.49 0.0 0 0 209.74 115.30
  Z"
/>
<path d="
  M 325.14 136.78
  L 347.70 136.74
  A 1.02 1.02 0.0 0 1 348.73 137.76
  L 348.76 146.33
  A 1.40 1.40 0.0 0 1 347.36 147.73
  L 312.73 147.75
  A 1.45 1.45 0.0 0 1 311.27 146.30
  C 311.21 135.77 310.59 129.93 320.19 123.94
  C 324.11 121.50 337.64 115.04 336.06 109.30
  Q 335.45 107.07 333.16 106.27
  Q 325.95 103.74 323.95 110.54
  A 1.89 1.89 0.0 0 1 321.78 111.87
  C 319.09 111.36 309.71 110.99 311.70 106.46
  Q 317.79 92.57 333.74 94.77
  C 343.27 96.09 350.18 102.77 348.81 112.70
  C 347.90 119.29 344.42 122.53 338.47 126.15
  Q 331.38 130.46 324.67 135.37
  A 0.78 0.78 0.0 0 0 325.14 136.78
  Z"
/>
<path d="
  M 358.52 108.51
  C 358.96 102.31 366.60 96.61 372.19 95.21
  C 382.48 92.61 399.40 97.01 399.48 110.58
  Q 399.54 121.79 399.48 133.00
  C 399.44 140.43 390.19 146.22 383.81 147.37
  C 372.41 149.42 359.06 144.24 358.50 131.06
  Q 357.91 117.14 358.52 108.51
  Z
  M 387.22 113.44
  A 7.83 7.83 0.0 0 0 379.39 105.61
  L 378.57 105.61
  A 7.83 7.83 0.0 0 0 370.74 113.44
  L 370.74 128.66
  A 7.83 7.83 0.0 0 0 378.57 136.49
  L 379.39 136.49
  A 7.83 7.83 0.0 0 0 387.22 128.66
  L 387.22 113.44
  Z"
/>
<path d="
  M 413.62 101.62
  Q 422.00 92.67 434.49 94.77
  C 443.88 96.36 451.42 101.97 451.30 111.85
  C 451.22 119.27 453.05 133.28 448.66 139.22
  C 443.04 146.84 433.79 149.13 424.37 147.03
  C 416.56 145.29 410.08 139.23 410.19 130.78
  C 410.29 122.99 408.18 107.43 413.62 101.62
  Z
  M 438.76 113.31
  C 438.77 102.73 422.47 104.30 422.49 112.01
  Q 422.51 120.31 422.49 128.66
  C 422.46 138.91 438.74 139.19 438.75 128.89
  Q 438.75 121.12 438.76 113.31
  Z"
/>
<path d="
  M 502.19 137.27
  C 494.59 153.11 462.57 150.97 462.51 130.79
  Q 462.48 119.78 462.51 108.75
  C 462.53 102.30 471.21 96.50 476.46 95.18
  C 487.21 92.48 503.43 97.30 503.48 111.00
  C 503.50 117.72 504.98 131.48 502.19 137.27
  Z
  M 491.2533 113.4544
  A 7.83 7.83 0.0 0 0 483.4369 105.6108
  L 482.5969 105.6093
  A 7.83 7.83 0.0 0 0 474.7533 113.4256
  L 474.7267 128.6456
  A 7.83 7.83 0.0 0 0 482.5431 136.4892
  L 483.3831 136.4907
  A 7.83 7.83 0.0 0 0 491.2267 128.6744
  L 491.2533 113.4544
  Z"
/>
<path d="
  M 513.75 171.46
  L 504.00 171.46
  L 504.44 171.05
  A 1.14 1.13 -66.4 0 1 505.22 170.74
  L 513.07 170.74
  A 0.66 0.65 -8.3 0 1 513.70 171.20
  Q 513.74 171.32 513.75 171.46
  Z"
/>
<path d="
  M 368.75 171.46
  L 362.75 171.46
  Q 365.81 170.00 368.75 171.46
  Z"
/>
</g>
<g fill="#00a05d">
<path d="
  M 0.00 51.23
  L 600.00 51.25
  L 600.00 58.81
  C 599.16 58.77 598.47 58.50 597.66 58.50
  Q 313.05 58.48 28.44 58.53
  Q 7.45 58.53 -0.01 58.68
  L 0.00 51.23
  Z"
/>
<path d="
  M 504.00 171.46
  L 513.75 171.46
  C 515.00 172.28 514.51 180.26 514.50 182.04
  A 0.72 0.72 0.0 0 1 513.78 182.75
  L 504.01 182.75
  A 0.72 0.72 0.0 0 1 503.29 182.04
  C 503.25 180.27 502.74 172.28 504.00 171.46
  Z"
/>
<path d="
  M 173.22 195.26
  C 185.04 175.55 217.23 183.34 214.75 208.76
  C 212.73 229.37 186.17 234.17 174.81 219.40
  C 169.70 212.76 168.87 202.52 173.22 195.26
  Z
  M 199.4634 198.6313
  A 9.41 9.41 0.0 0 0 186.1573 198.4223
  L 185.0226 199.5218
  A 9.41 9.41 0.0 0 0 184.8136 212.8279
  L 185.9966 214.0487
  A 9.41 9.41 0.0 0 0 199.3027 214.2577
  L 200.4374 213.1582
  A 9.41 9.41 0.0 0 0 200.6464 199.8521
  L 199.4634 198.6313
  Z"
/>
<rect x="503.25" y="184.27" width="11.26" height="42.48" rx="1.44"/>
<path d="
  M 0.00 240.48
  L 600.00 240.48
  L 600.00 247.81
  C 588.31 247.29 576.69 247.61 565.00 247.60
  Q 282.50 247.31 0.00 247.69
  L 0.00 240.48
  Z"
/>
</g>
<g fill="#0567d7">
<path d="
  M 600.00 58.81
  L 600.00 65.81
  C 445.16 66.08 290.31 65.54 135.47 66.01
  Q 67.73 66.22 0.00 65.68
  L -0.01 58.68
  Q 7.45 58.53 28.44 58.53
  Q 313.05 58.48 597.66 58.50
  C 598.47 58.50 599.16 58.77 600.00 58.81
  Z"
/>
<path d="
  M 362.75 171.46
  L 368.75 171.46
  Q 383.03 172.92 390.71 185.16
  A 2.22 2.21 -31.8 0 1 389.99 188.22
  L 383.59 192.18
  A 1.88 1.88 0.0 0 1 381.21 191.84
  C 379.34 189.79 377.32 187.25 374.90 185.87
  Q 361.48 178.23 351.98 190.78
  C 341.64 204.44 359.34 222.96 374.12 214.65
  Q 379.75 211.49 382.26 206.14
  A 0.65 0.64 12.2 0 0 381.66 205.22
  L 373.21 205.33
  A 0.93 0.93 0.0 0 1 372.27 204.40
  L 372.24 194.91
  A 0.91 0.91 0.0 0 1 373.15 194.00
  L 394.22 194.00
  A 0.90 0.89 85.5 0 1 395.10 194.76
  C 398.15 214.73 382.79 229.57 363.12 227.77
  C 329.40 224.68 328.72 175.99 362.75 171.46
  Z"
/>
<path d="
  M 80.94 208.46
  C 83.99 210.23 89.98 212.60 86.40 217.15
  C 68.86 239.45 31.73 226.93 34.54 197.45
  C 35.93 182.84 47.16 172.69 61.64 171.92
  Q 77.08 171.10 87.30 185.01
  A 2.74 2.73 53.5 0 1 86.74 188.82
  C 84.14 190.76 79.85 194.82 76.88 191.06
  C 67.62 179.32 51.49 182.17 46.64 195.99
  C 42.52 207.72 55.49 220.04 66.99 216.68
  Q 73.59 214.75 77.45 209.23
  A 2.65 2.65 0.0 0 1 80.94 208.46
  Z"
/>
<path d="
  M 261.48 225.83
  A 1.24 1.23 85.6 0 1 260.45 227.04
  Q 256.69 227.70 252.47 227.11
  Q 250.18 226.79 248.08 227.25
  C 238.01 229.46 228.30 225.63 224.54 215.93
  Q 223.21 212.50 223.24 205.89
  Q 223.27 195.63 223.24 185.30
  A 1.04 1.04 0.0 0 1 224.29 184.26
  L 233.82 184.31
  A 0.63 0.63 0.0 0 1 234.44 184.94
  Q 234.49 193.70 234.54 202.34
  C 234.57 208.50 234.14 212.97 239.25 215.78
  C 245.07 218.98 249.65 213.37 249.95 208.01
  Q 250.56 197.10 250.09 185.35
  A 0.96 0.96 0.0 0 1 251.04 184.35
  L 259.98 184.22
  A 1.49 1.49 0.0 0 1 261.49 185.72
  L 261.48 225.83
  Z"
/>
<path d="
  M 600.00 247.81
  L 600.00 254.98
  L 0.00 254.94
  L 0.00 247.69
  Q 282.50 247.31 565.00 247.60
  C 576.69 247.61 588.31 247.29 600.00 247.81
  Z"
/>
</g>
<g fill="#b70006">
<path d="
  M 600.00 44.05
  L 600.00 51.25
  L 0.00 51.23
  L 0.00 44.03
  L 600.00 44.05
  Z"
/>
<path d="
  M 95.05 201.65
  C 99.62 175.97 140.28 179.90 139.23 206.53
  C 138.00 237.70 89.35 233.59 95.05 201.65
  Z
  M 124.7064 213.0173
  A 9.42 9.42 0.0 0 0 124.6831 199.6954
  L 123.5073 198.5236
  A 9.42 9.42 0.0 0 0 110.1854 198.5469
  L 109.0136 199.7227
  A 9.42 9.42 0.0 0 0 109.0369 213.0446
  L 110.2127 214.2164
  A 9.42 9.42 0.0 0 0 123.5346 214.1931
  L 124.7064 213.0173
  Z"
/>
<path d="
  M 283.79 185.54
  Q 287.66 183.99 291.86 184.38
  A 1.52 1.51 -87.9 0 1 293.24 185.87
  Q 293.28 189.34 293.23 193.20
  C 293.20 195.34 292.25 195.31 290.52 195.51
  C 284.40 196.19 283.03 200.91 283.01 206.60
  Q 282.99 216.28 282.99 225.74
  A 0.99 0.99 0.0 0 1 281.99 226.74
  L 272.47 226.69
  A 0.73 0.72 0.4 0 1 271.75 225.97
  L 271.75 185.25
  A 0.75 0.75 0.0 0 1 272.50 184.50
  L 281.92 184.50
  A 1.02 1.00 73.1 0 1 282.76 184.96
  L 282.94 185.26
  A 0.70 0.70 0.0 0 0 283.79 185.54
  Z"
/>
<path d="
  M 419.56 216.27
  C 425.18 218.06 430.61 213.85 432.90 209.04
  A 1.32 1.31 -88.0 0 1 433.58 208.40
  Q 435.90 207.46 437.24 209.51
  C 438.40 211.29 442.00 215.81 441.44 217.79
  C 440.21 222.20 432.16 226.56 428.34 227.31
  C 415.00 229.93 402.18 222.94 400.56 209.10
  C 397.62 183.91 430.14 175.07 442.64 195.75
  C 443.41 197.04 443.40 198.39 443.12 199.77
  A 1.29 1.27 -10.9 0 1 442.57 200.57
  L 419.44 215.41
  A 0.48 0.48 0.0 0 0 419.56 216.27
  Z
  M 426.33 196.76
  C 419.70 193.26 413.11 200.12 411.76 206.16
  A 0.26 0.26 0.0 0 0 412.16 206.43
  L 426.35 197.25
  A 0.28 0.28 0.0 0 0 426.33 196.76
  Z"
/>
<path d="
  M 542.14 215.98
  C 547.29 218.73 553.51 213.49 555.34 209.03
  A 0.98 0.98 0.0 0 1 556.15 208.42
  L 558.15 208.22
  A 1.02 1.01 -20.4 0 1 559.08 208.64
  C 561.15 211.50 565.91 216.45 562.97 219.95
  Q 556.94 227.10 547.53 227.88
  C 516.79 230.42 514.66 185.91 543.58 184.31
  C 555.51 183.65 559.91 188.69 566.51 197.33
  A 1.86 1.85 -35.0 0 1 566.03 200.02
  L 542.12 215.32
  A 0.38 0.38 0.0 0 0 542.14 215.98
  Z
  M 548.93 196.49
  C 541.89 194.45 535.62 199.15 534.52 206.15
  A 0.22 0.22 0.0 0 0 534.86 206.37
  L 549.03 197.19
  A 0.39 0.39 0.0 0 0 548.93 196.49
  Z"
/>
<path d="
  M 600.00 233.24
  L 600.00 240.48
  L 0.00 240.48
  L 0.00 233.19
  C 118.00 232.98 236.00 233.14 354.00 233.00
  Q 477.00 232.85 600.00 233.24
  Z"
/>
</g>
<g fill="#d1c544">
<rect x="149.01" y="171.78" width="11.24" height="55.48" rx="1.46"/>
<path d="
  M 453.26 186.29
  A 0.69 0.68 87.8 0 1 453.89 185.60
  C 458.37 185.27 463.33 186.36 467.56 185.31
  C 476.53 183.07 485.98 187.42 489.85 195.74
  Q 491.27 198.79 491.39 203.99
  Q 491.64 215.00 491.44 226.05
  A 1.22 1.22 0.0 0 1 490.22 227.25
  L 481.75 227.26
  A 1.79 1.78 -88.5 0 1 479.97 225.38
  C 480.28 219.83 481.53 203.84 478.23 199.68
  C 474.68 195.19 468.41 195.74 465.71 200.69
  C 463.23 205.24 464.45 220.00 464.58 226.11
  A 1.13 1.13 0.0 0 1 463.45 227.26
  L 454.28 227.25
  A 1.03 1.03 0.0 0 1 453.25 226.22
  L 453.26 186.29
  Z"
/>
</g>
</svg>
